static/assets/images/networks/harmony.svg

<svg width="256" height="256" viewBox="0 0 256 256" fill="none" xmlns="http://www.w3.org/2000/svg">
<path d="M256 128C256 161.948 242.514 194.505 218.51 218.51C194.505 242.514 161.948 256 128 256C94.0523 256 61.495 242.514 37.4903 218.51C13.4857 194.505 0 161.948 0 128C0 94.0523 13.4857 61.495 37.4903 37.4903C61.495 13.4857 94.0523 0 128 0C161.948 0 194.505 13.4857 218.51 37.4903C242.514 61.495 256 94.0523 256 128Z" fill="black"/>
<path d="M173.592 47.616C164.381 47.6089 155.542 51.2555 149.018 57.7554C142.493 64.2553 138.815 73.0774 138.792 82.285V120.725C135.208 120.966 131.543 121.119 127.744 121.119C123.945 121.119 120.298 121.271 116.696 121.486V82.285C116.55 73.1572 112.819 64.4528 106.31 58.0496C99.8001 51.6464 91.0332 48.0577 81.9002 48.0577C72.7672 48.0577 64.0002 51.6464 57.4906 58.0496C50.981 64.4528 47.2505 73.1572 47.104 82.285V174.157C47.2505 183.284 50.981 191.989 57.4906 198.392C64.0002 204.795 72.7672 208.384 81.9002 208.384C91.0332 208.384 99.8001 204.795 106.31 198.392C112.819 191.989 116.55 183.284 116.696 174.157V135.717C120.28 135.475 123.945 135.323 127.744 135.323C131.543 135.323 135.19 135.171 138.792 134.956V174.157C138.938 183.284 142.669 191.989 149.178 198.392C155.688 204.795 164.455 208.384 173.588 208.384C182.721 208.384 191.488 204.795 197.997 198.392C204.507 191.989 208.237 183.284 208.384 174.157V82.285C208.36 73.0789 204.684 64.2582 198.161 57.7586C191.638 51.2589 182.802 47.6112 173.592 47.616ZM81.8957 61.8204C87.3321 61.818 92.5475 63.9713 96.3975 67.8079C100.248 71.6445 102.418 76.851 102.432 82.285V122.991C92.2515 124.465 82.3099 127.275 72.864 131.347C68.7714 133.142 64.9187 135.441 61.3952 138.189V82.285C61.4094 76.8572 63.5747 71.6561 67.417 67.8205C71.2593 63.985 76.4655 61.8275 81.8957 61.8204ZM102.432 174.157C102.432 179.601 100.268 184.822 96.4171 188.672C92.5657 192.521 87.3423 194.684 81.8957 194.684C76.4491 194.684 71.2256 192.521 67.3743 188.672C63.523 184.822 61.3594 179.601 61.3594 174.157V164.941C61.3594 156.8 67.8106 149.089 78.6253 144.288C86.2455 141.002 94.2411 138.665 102.432 137.329V174.157ZM173.592 194.621C168.156 194.624 162.94 192.47 159.09 188.634C155.24 184.797 153.07 179.591 153.056 174.157V133.451C163.237 131.977 173.178 129.167 182.624 125.095C186.717 123.3 190.569 121.001 194.093 118.253V174.157C194.079 179.585 191.913 184.786 188.071 188.621C184.229 192.457 179.023 194.614 173.592 194.621ZM176.863 112.1C169.242 115.386 161.247 117.723 153.056 119.059V82.285C153.056 76.8409 155.22 71.6196 159.071 67.77C162.922 63.9204 168.146 61.7577 173.592 61.7577C179.039 61.7577 184.262 63.9204 188.114 67.77C191.965 71.6196 194.129 76.8409 194.129 82.285V91.5009C194.129 99.6061 187.677 107.317 176.863 112.1Z" fill="url(#paint0_linear_34_8)"/>
<defs>
<linearGradient id="paint0_linear_34_8" x1="57.3184" y1="196.406" x2="197.188" y2="56.0934" gradientUnits="userSpaceOnUse">
<stop stop-color="#00AEE9"/>
<stop offset="1" stop-color="#69FABD"/>
</linearGradient>
</defs>
</svg>

<svg xmlns="http://www.w3.org/2000/svg" fill="none" viewBox="0 0 256 256"><path fill="#000" d="M256 128a128 128 0 0 1-37.49 90.51 128.003 128.003 0 0 1-181.02 0A128.001 128.001 0 1 1 256 128"/><path fill="url(#paint0_linear_34_8)" d="M173.592 47.616a34.78 34.78 0 0 0-24.574 10.14 34.75 34.75 0 0 0-10.226 24.529v38.44c-3.584.241-7.249.394-11.048.394s-7.446.152-11.048.367V82.285A34.78 34.78 0 0 0 106.31 58.05a34.81 34.81 0 0 0-48.82 0 34.78 34.78 0 0 0-10.386 24.235v91.872a34.78 34.78 0 0 0 10.387 24.235 34.81 34.81 0 0 0 48.819 0 34.78 34.78 0 0 0 10.386-24.235v-38.44c3.584-.242 7.249-.394 11.048-.394s7.446-.152 11.048-.367v39.201a34.78 34.78 0 0 0 10.386 24.235 34.81 34.81 0 0 0 48.819 0 34.78 34.78 0 0 0 10.387-24.235V82.285a34.75 34.75 0 0 0-10.223-24.526 34.78 34.78 0 0 0-24.569-10.143M81.896 61.82a20.53 20.53 0 0 1 14.501 5.988 20.5 20.5 0 0 1 6.035 14.477v40.706a117 117 0 0 0-29.568 8.356 53.8 53.8 0 0 0-11.469 6.842V82.285a20.5 20.5 0 0 1 6.022-14.465 20.53 20.53 0 0 1 14.479-6m20.536 112.337a20.53 20.53 0 0 1-6.015 14.515 20.543 20.543 0 0 1-29.043 0 20.52 20.52 0 0 1-6.015-14.515v-9.216c0-8.141 6.452-15.852 17.266-20.653a101.3 101.3 0 0 1 23.807-6.959zm71.16 20.464a20.53 20.53 0 0 1-14.502-5.987 20.5 20.5 0 0 1-6.034-14.477v-40.706a117 117 0 0 0 29.568-8.356 53.8 53.8 0 0 0 11.469-6.842v55.904a20.5 20.5 0 0 1-6.022 14.464 20.53 20.53 0 0 1-14.479 6m3.271-82.521a101.3 101.3 0 0 1-23.807 6.959V82.285a20.52 20.52 0 0 1 6.015-14.515 20.54 20.54 0 0 1 29.043 0 20.52 20.52 0 0 1 6.015 14.515v9.216c0 8.105-6.452 15.816-17.266 20.599"/><defs><linearGradient id="paint0_linear_34_8" x1="57.318" x2="197.188" y1="196.406" y2="56.093" gradientUnits="userSpaceOnUse"><stop stop-color="#00AEE9"/><stop offset="1" stop-color="#69FABD"/></linearGradient></defs></svg>
